documentation/public/assets/images/select.svg

<svg width="293" height="48" viewBox="0 0 293 48" fill="none" xmlns="http://www.w3.org/2000/svg">
<rect x="0.5" y="0.5" width="292" height="47" rx="3.5" fill="white"/>
<path d="M19.7727 21.2727C19.7045 20.697 19.428 20.25 18.9432 19.9318C18.4583 19.6136 17.8636 19.4545 17.1591 19.4545C16.6439 19.4545 16.1932 19.5379 15.8068 19.7045C15.4242 19.8712 15.125 20.1004 14.9091 20.392C14.697 20.6837 14.5909 21.0152 14.5909 21.3864C14.5909 21.697 14.6648 21.964 14.8125 22.1875C14.964 22.4072 15.1572 22.5909 15.392 22.7386C15.6269 22.8826 15.8731 23.0019 16.1307 23.0966C16.3883 23.1875 16.625 23.2614 16.8409 23.3182L18.0227 23.6364C18.3258 23.7159 18.6629 23.8258 19.0341 23.9659C19.4091 24.1061 19.767 24.2973 20.108 24.5398C20.4527 24.7784 20.7367 25.0852 20.9602 25.4602C21.1837 25.8352 21.2955 26.2955 21.2955 26.8409C21.2955 27.4697 21.1307 28.0379 20.8011 28.5455C20.4754 29.053 19.9981 29.4564 19.3693 29.7557C18.7443 30.0549 17.9848 30.2045 17.0909 30.2045C16.2576 30.2045 15.536 30.0701 14.9261 29.8011C14.3201 29.5322 13.8428 29.1572 13.4943 28.6761C13.1496 28.1951 12.9545 27.6364 12.9091 27H14.3636C14.4015 27.4394 14.5492 27.803 14.8068 28.0909C15.0682 28.375 15.3977 28.5871 15.7955 28.7273C16.197 28.8636 16.6288 28.9318 17.0909 28.9318C17.6288 28.9318 18.1117 28.8447 18.5398 28.6705C18.9678 28.4924 19.3068 28.2462 19.5568 27.9318C19.8068 27.6136 19.9318 27.2424 19.9318 26.8182C19.9318 26.4318 19.8239 26.1174 19.608 25.875C19.392 25.6326 19.108 25.4356 18.7557 25.2841C18.4034 25.1326 18.0227 25 17.6136 24.8864L16.1818 24.4773C15.2727 24.2159 14.553 23.8428 14.0227 23.358C13.4924 22.8731 13.2273 22.2386 13.2273 21.4545C13.2273 20.803 13.4034 20.2348 13.7557 19.75C14.1117 19.2614 14.589 18.8826 15.1875 18.6136C15.7898 18.3409 16.4621 18.2045 17.2045 18.2045C17.9545 18.2045 18.6212 18.339 19.2045 18.608C19.7879 18.8731 20.25 19.2367 20.5909 19.6989C20.9356 20.161 21.1174 20.6856 21.1364 21.2727H19.7727ZM27.0895 30.1818C26.2486 30.1818 25.5232 29.9962 24.9134 29.625C24.3073 29.25 23.8395 28.7273 23.5099 28.0568C23.1842 27.3826 23.0213 26.5985 23.0213 25.7045C23.0213 24.8106 23.1842 24.0227 23.5099 23.3409C23.8395 22.6553 24.2978 22.1212 24.8849 21.7386C25.4759 21.3523 26.1652 21.1591 26.9531 21.1591C27.4077 21.1591 27.8565 21.2348 28.2997 21.3864C28.7429 21.5379 29.1463 21.7841 29.5099 22.125C29.8736 22.4621 30.1634 22.9091 30.3793 23.4659C30.5952 24.0227 30.7031 24.7083 30.7031 25.5227V26.0909H23.9759V24.9318H29.3395C29.3395 24.4394 29.241 24 29.044 23.6136C28.8509 23.2273 28.5743 22.9223 28.2145 22.6989C27.8584 22.4754 27.438 22.3636 26.9531 22.3636C26.419 22.3636 25.9569 22.4962 25.5668 22.7614C25.1804 23.0227 24.883 23.3636 24.6747 23.7841C24.4664 24.2045 24.3622 24.6553 24.3622 25.1364V25.9091C24.3622 26.5682 24.4759 27.1269 24.7031 27.5852C24.9342 28.0398 25.2543 28.3864 25.6634 28.625C26.0724 28.8598 26.5478 28.9773 27.0895 28.9773C27.4418 28.9773 27.7599 28.928 28.044 28.8295C28.3319 28.7273 28.58 28.5758 28.7884 28.375C28.9967 28.1705 29.1577 27.9167 29.2713 27.6136L30.5668 27.9773C30.4304 28.4167 30.2012 28.803 29.8793 29.1364C29.5573 29.4659 29.1596 29.7235 28.6861 29.9091C28.2126 30.0909 27.6804 30.1818 27.0895 30.1818ZM34.0838 18.3636V30H32.7429V18.3636H34.0838ZM40.1989 30.1818C39.358 30.1818 38.6326 29.9962 38.0227 29.625C37.4167 29.25 36.9489 28.7273 36.6193 28.0568C36.2936 27.3826 36.1307 26.5985 36.1307 25.7045C36.1307 24.8106 36.2936 24.0227 36.6193 23.3409C36.9489 22.6553 37.4072 22.1212 37.9943 21.7386C38.5852 21.3523 39.2746 21.1591 40.0625 21.1591C40.517 21.1591 40.9659 21.2348 41.4091 21.3864C41.8523 21.5379 42.2557 21.7841 42.6193 22.125C42.983 22.4621 43.2727 22.9091 43.4886 23.4659C43.7045 24.0227 43.8125 24.7083 43.8125 25.5227V26.0909H37.0852V24.9318H42.4489C42.4489 24.4394 42.3504 24 42.1534 23.6136C41.9602 23.2273 41.6837 22.9223 41.3239 22.6989C40.9678 22.4754 40.5473 22.3636 40.0625 22.3636C39.5284 22.3636 39.0663 22.4962 38.6761 22.7614C38.2898 23.0227 37.9924 23.3636 37.7841 23.7841C37.5758 24.2045 37.4716 24.6553 37.4716 25.1364V25.9091C37.4716 26.5682 37.5852 27.1269 37.8125 27.5852C38.0436 28.0398 38.3636 28.3864 38.7727 28.625C39.1818 28.8598 39.6572 28.9773 40.1989 28.9773C40.5511 28.9773 40.8693 28.928 41.1534 28.8295C41.4413 28.7273 41.6894 28.5758 41.8977 28.375C42.1061 28.1705 42.267 27.9167 42.3807 27.6136L43.6761 27.9773C43.5398 28.4167 43.3106 28.803 42.9886 29.1364C42.6667 29.4659 42.2689 29.7235 41.7955 29.9091C41.322 30.0909 40.7898 30.1818 40.1989 30.1818ZM49.3977 30.1818C48.5795 30.1818 47.875 29.9886 47.2841 29.6023C46.6932 29.2159 46.2386 28.6837 45.9205 28.0057C45.6023 27.3277 45.4432 26.553 45.4432 25.6818C45.4432 24.7955 45.6061 24.0133 45.9318 23.3352C46.2614 22.6534 46.7197 22.1212 47.3068 21.7386C47.8977 21.3523 48.5871 21.1591 49.375 21.1591C49.9886 21.1591 50.5417 21.2727 51.0341 21.5C51.5265 21.7273 51.9299 22.0455 52.2443 22.4545C52.5587 22.8636 52.7538 23.3409 52.8295 23.8864H51.4886C51.3864 23.4886 51.1591 23.1364 50.8068 22.8295C50.4583 22.5189 49.9886 22.3636 49.3977 22.3636C48.875 22.3636 48.4167 22.5 48.0227 22.7727C47.6326 23.0417 47.3277 23.4223 47.108 23.9148C46.892 24.4034 46.7841 24.9773 46.7841 25.6364C46.7841 26.3106 46.8902 26.8977 47.1023 27.3977C47.3182 27.8977 47.6212 28.286 48.0114 28.5625C48.4053 28.839 48.8674 28.9773 49.3977 28.9773C49.7462 28.9773 50.0625 28.9167 50.3466 28.7955C50.6307 28.6742 50.8712 28.5 51.0682 28.2727C51.2652 28.0455 51.4053 27.7727 51.4886 27.4545H52.8295C52.7538 27.9697 52.5663 28.4337 52.267 28.8466C51.9716 29.2557 51.5795 29.5814 51.0909 29.8239C50.6061 30.0625 50.0417 30.1818 49.3977 30.1818ZM58.5852 21.2727V22.4091H54.0625V21.2727H58.5852ZM55.3807 19.1818H56.7216V27.5C56.7216 27.8788 56.7765 28.1629 56.8864 28.3523C57 28.5379 57.1439 28.6629 57.3182 28.7273C57.4962 28.7879 57.6837 28.8182 57.8807 28.8182C58.0284 28.8182 58.1496 28.8106 58.2443 28.7955C58.339 28.7765 58.4148 28.7614 58.4716 28.75L58.7443 29.9545C58.6534 29.9886 58.5265 30.0227 58.3636 30.0568C58.2008 30.0947 57.9943 30.1136 57.7443 30.1136C57.3655 30.1136 56.9943 30.0322 56.6307 29.8693C56.2708 29.7064 55.9716 29.4583 55.733 29.125C55.4981 28.7917 55.3807 28.3712 55.3807 27.8636V19.1818Z" fill="#1F1F1F"/>
<path d="M271 27.2751C270.8 27.2751 270.6 27.2001 270.45 27.0501L265.45 22.0501C265.15 21.7501 265.15 21.2501 265.45 20.9501C265.75 20.6501 266.25 20.6501 266.55 20.9501L271 25.4001L275.45 20.9501C275.75 20.6501 276.25 20.6501 276.55 20.9501C276.85 21.2501 276.85 21.7501 276.55 22.0501L271.55 27.0501C271.4 27.2001 271.2 27.2751 271 27.2751Z" fill="#757575"/>
<rect x="0.5" y="0.5" width="292" height="47" rx="3.5" stroke="#545454"/>
</svg>

<svg width="293" height="48" fill="none" xmlns="http://www.w3.org/2000/svg"><rect x=".5" y=".5" width="292" height="47" rx="3.5" fill="#fff"/><path d="M19.77 21.27a1.78 1.78 0 0 0-.83-1.34 3.18 3.18 0 0 0-1.78-.48c-.52 0-.97.09-1.35.25-.39.17-.69.4-.9.7a1.65 1.65 0 0 0-.1 1.79c.15.22.35.4.58.55.24.14.48.26.74.36l.71.22 1.18.32c.3.08.64.19 1.01.33.38.14.74.33 1.08.57a2.65 2.65 0 0 1 1.19 2.3c0 .63-.17 1.2-.5 1.7-.32.51-.8.92-1.43 1.22-.63.3-1.39.44-2.28.44a5.3 5.3 0 0 1-2.16-.4A3.2 3.2 0 0 1 12.9 27h1.45c.04.44.19.8.45 1.1.26.27.59.49.99.63a4 4 0 0 0 1.3.2c.53 0 1.01-.09 1.44-.26.43-.18.77-.42 1.02-.74s.37-.69.37-1.11c0-.39-.1-.7-.32-.95-.22-.24-.5-.43-.85-.59a8.95 8.95 0 0 0-1.15-.4l-1.43-.4a5.33 5.33 0 0 1-2.16-1.12 2.46 2.46 0 0 1-.8-1.9c0-.66.18-1.23.54-1.71.35-.49.83-.87 1.43-1.14.6-.27 1.27-.4 2.01-.4.75 0 1.42.13 2 .4a3.5 3.5 0 0 1 1.4 1.09c.34.46.52.99.54 1.57h-1.37Zm7.32 8.91a3.74 3.74 0 0 1-3.58-2.13 5.35 5.35 0 0 1-.49-2.35c0-.89.16-1.68.49-2.36a3.7 3.7 0 0 1 3.44-2.18c.46 0 .9.07 1.35.23a3.34 3.34 0 0 1 2.08 2.08c.22.55.32 1.24.32 2.05v.57h-6.72v-1.16h5.36c0-.5-.1-.93-.3-1.32a2.23 2.23 0 0 0-2.09-1.25c-.53 0-1 .14-1.38.4-.39.26-.69.6-.9 1.02a3 3 0 0 0-.3 1.36v.77c0 .66.1 1.22.33 1.68.23.45.55.8.96 1.04.41.23.89.35 1.43.35.35 0 .67-.05.95-.15.3-.1.54-.25.75-.45.2-.2.37-.46.48-.77l1.3.37a2.9 2.9 0 0 1-.7 1.16c-.31.33-.71.58-1.18.77-.48.18-1.01.27-1.6.27Zm7-11.82V30h-1.35V18.36h1.34Zm6.1 11.82a3.74 3.74 0 0 1-3.58-2.13 5.35 5.35 0 0 1-.48-2.35c0-.89.16-1.68.49-2.36a3.7 3.7 0 0 1 3.44-2.18c.46 0 .9.07 1.35.23a3.34 3.34 0 0 1 2.08 2.08c.21.55.32 1.24.32 2.05v.57H37.1v-1.16h5.36c0-.5-.1-.93-.3-1.32a2.23 2.23 0 0 0-2.09-1.25c-.53 0-1 .14-1.38.4-.39.26-.69.6-.9 1.02a3 3 0 0 0-.3 1.36v.77c0 .66.1 1.22.33 1.68.23.45.55.8.96 1.04.41.23.89.35 1.43.35.35 0 .67-.05.95-.15.3-.1.54-.25.75-.45.2-.2.37-.46.48-.77l1.3.37a2.9 2.9 0 0 1-.7 1.16c-.31.33-.71.58-1.18.77-.48.18-1.01.27-1.6.27Zm9.2 0c-.81 0-1.52-.2-2.1-.58a3.78 3.78 0 0 1-1.37-1.6 5.4 5.4 0 0 1-.48-2.32c0-.88.17-1.67.5-2.34a3.7 3.7 0 0 1 3.44-2.18c.6 0 1.16.11 1.65.34a2.98 2.98 0 0 1 1.8 2.39h-1.34a2.04 2.04 0 0 0-2.1-1.52 2.37 2.37 0 0 0-2.28 1.54 4.23 4.23 0 0 0-.33 1.73c0 .67.11 1.26.32 1.76.22.5.52.89.91 1.16.4.28.86.42 1.39.42.35 0 .66-.06.95-.18a1.96 1.96 0 0 0 1.14-1.35h1.34a3.1 3.1 0 0 1-1.74 2.37c-.48.24-1.05.36-1.7.36Zm9.2-8.9v1.13h-4.53v-1.14h4.53Zm-3.2-2.1h1.33v8.32c0 .38.06.66.17.85.11.19.25.31.43.38.18.06.36.09.56.09.15 0 .27 0 .36-.02l.23-.05.27 1.2a2.73 2.73 0 0 1-1 .16 2.7 2.7 0 0 1-1.1-.24 2.21 2.21 0 0 1-.9-.75 2.14 2.14 0 0 1-.36-1.26v-8.68Z" fill="#1F1F1F"/><path d="M271 27.28c-.2 0-.4-.08-.55-.23l-5-5c-.3-.3-.3-.8 0-1.1.3-.3.8-.3 1.1 0L271 25.4l4.45-4.45c.3-.3.8-.3 1.1 0 .3.3.3.8 0 1.1l-5 5a.78.78 0 0 1-.55.23Z" fill="#757575"/><rect x=".5" y=".5" width="292" height="47" rx="3.5" stroke="#545454"/></svg>
